X:60
T:The Bold Dragoon - Crossing
C:Taken down from a man on Dartmoor by W. Crossing, 1878.
%%VWML:SBG-1-1-306-0
F:http://www.vwml.org/record/SBG/1/1/306
Z:Original Sibleius Transcription by Martin and Shan Graebe
L:1/4
M:4/4
I:linebreak $
K:F
D | F G D A | G B3/4 B/ A3/4 A/4 | d d c F | B2 A A |$ d d c F | G B A3/2 A/4 A/4 | 
D F (F E3/4) F/4 | E2 D z/ G/ | G2 E z/ A/ |$ (d2 A) A | d d c F | G B A A/A/ | D D F3/4 F/4 | 
E2 !fermata!D z || 
T:The Bold Dragoon - Cleave
T:Taken down from Richard Cleave, Huckaby Bridge, Jan. 1889, by F.W.B.
L:1/8
M:3/4
I:linebreak $
K:Eb
E | E G G2 F2 | F E E2 B2 | B c c2 A2 | cB z2 E2 | E G G2 F2 |$ F E E2 B2 | B c c2 A2 | cB z B | 
e3/2 d/ e c A c | B2 G3 E | E G G2 F2 | (F2 E2) z2 |$ (G2 F2) z B | e2 B2 z B | e3/2 d/ ecAc | 
(B2 G2) E2 | E G G2 F2 | (F2 E4) ||



